svg/session.svg

<svg xmlns="http://www.w3.org/2000/svg" xmlns:xlink="http://www.w3.org/1999/xlink" width="463" height="512" version="1.1" viewBox="0 0 463 512"><g id="surface1"><path style="stroke:none;fill-rule:evenodd;fill:#20ae6b;fill-opacity:1" d="M 100.621094 2.71875 C 60.257812 13.019531 25.679688 42.703125 10.46875 80.113281 C -0.832031 107.914062 -1.625 146.046875 8.484375 175.824219 C 16.25 198.699219 32.785156 222.59375 50.96875 237.210938 C 61.371094 245.574219 91.617188 263.488281 140.484375 290.21875 L 164.871094 303.558594 L 125.710938 304.136719 C 87.898438 304.695312 86.160156 304.84375 75.269531 308.449219 C 48.34375 317.351562 23.980469 337.5625 12.808594 360.257812 C 3.785156 378.59375 0.902344 392.3125 1.765625 412.792969 C 2.59375 432.261719 6.113281 445.238281 14.828125 460.894531 C 25.265625 479.648438 49.300781 499.230469 72.105469 507.5625 L 82.328125 511.296875 L 217.363281 511.675781 C 371.019531 512.109375 361.820312 512.738281 388.34375 499.964844 C 417.808594 485.777344 439.402344 464.175781 452.105469 436.171875 C 466.289062 404.902344 466.914062 364.09375 453.71875 330.550781 C 448.515625 317.335938 441.515625 305.304688 432.230469 293.644531 C 417.25 274.828125 404.746094 266.375 333.746094 227.066406 L 300.886719 208.878906 L 339.375 208.070312 C 376.105469 207.300781 378.371094 207.09375 389.117188 203.535156 C 420.175781 193.25 446.480469 168.730469 456.828125 140.417969 C 463.742188 121.496094 465.054688 97.242188 460.207031 77.9375 C 452.503906 47.292969 430.441406 21.285156 400.566406 7.652344 C 383.324219 -0.21875 387.695312 -0.0078125 243.519531 0.105469 C 120.589844 0.199219 109.722656 0.398438 100.621094 2.71875 M 118.210938 2.296875 C 68.859375 5.992188 25.824219 40.84375 8.660156 91.019531 C 4.019531 104.59375 2.382812 118.488281 3.230469 137.144531 C 4.820312 172.132812 19.308594 203.585938 45.859375 229.703125 C 57.621094 241.273438 63.476562 245.25 90.769531 260.21875 C 124.296875 278.601562 126.304688 279.71875 147.0625 291.507812 C 165.972656 302.246094 170.1875 304.953125 168.804688 305.464844 C 168.457031 305.59375 149.171875 306.140625 125.953125 306.671875 C 82.472656 307.675781 81.636719 307.78125 64.734375 314.464844 C 43.003906 323.058594 21.160156 345.132812 10.464844 369.300781 C 2.007812 388.410156 0.523438 419.664062 7.164062 438.855469 C 18.0625 470.378906 43.097656 496.050781 71.773438 505.121094 C 87.691406 510.15625 107.117188 510.773438 233.75 510.25 L 355.34375 509.746094 L 368.003906 505.988281 C 404.46875 495.160156 431.964844 471.847656 449.191406 437.140625 C 458.835938 417.714844 462.324219 399.539062 461.148438 374.855469 C 459.328125 336.5625 442.34375 302.671875 411.425781 275.628906 C 402.738281 268.035156 395.4375 263.554688 360.972656 244.695312 C 347.8125 237.496094 328.300781 226.648438 317.609375 220.59375 C 306.917969 214.539062 297.578125 209.582031 296.851562 209.582031 C 294.183594 209.582031 295.632812 207.050781 298.746094 206.265625 C 300.515625 205.824219 317.140625 205.4375 335.6875 205.40625 C 374.875 205.34375 382.390625 204.421875 399.671875 197.550781 C 419.476562 189.671875 440.867188 169.335938 451.46875 148.296875 C 458.886719 133.578125 460.871094 124.101562 460.871094 103.382812 C 460.867188 82.722656 458.914062 73.480469 451.351562 58.375 C 439.359375 34.40625 416.414062 14.65625 390.523438 6.007812 L 379.265625 2.246094 L 251.90625 2.035156 C 181.859375 1.917969 121.695312 2.035156 118.210938 2.296875 M 121.730469 31.847656 C 98.589844 36.570312 84.300781 42.714844 70.023438 54.074219 C 47.664062 71.871094 33.773438 100.554688 33.773438 128.933594 C 33.773438 171.074219 53.9375 204.34375 93.074219 226.785156 C 108.136719 235.425781 137.65625 251.777344 159.726562 263.710938 C 165.144531 266.640625 179.488281 274.648438 191.601562 281.507812 C 203.714844 288.367188 214.320312 293.976562 215.171875 293.976562 C 217.066406 293.976562 216.84375 300.34375 217.164062 237.714844 C 217.3125 208.703125 217.984375 183.835938 218.65625 182.453125 C 221.808594 175.976562 223.609375 175.824219 297.722656 175.824219 C 374.683594 175.824219 376.886719 175.621094 393.050781 167.039062 C 404.722656 160.839844 412.933594 153.0625 419.523438 141.976562 C 427.402344 128.722656 430.632812 117.613281 430.632812 103.761719 C 430.632812 68.484375 405.09375 38.476562 370.003906 32.519531 C 361.207031 31.023438 128.835938 30.394531 121.730469 31.847656 M 113.359375 36.082031 C 92.949219 40.453125 73.265625 51.617188 59.859375 66.425781 C 50.394531 76.878906 44.828125 86.476562 39.851562 100.914062 C 36.59375 110.378906 36.082031 114.15625 36.003906 129.40625 C 35.898438 150.503906 37.980469 159.507812 47.378906 178.632812 C 56.65625 197.507812 71.644531 212.304688 94.289062 224.945312 C 103.191406 229.914062 124.722656 242.007812 142.136719 251.820312 C 186.695312 276.925781 213.027344 290.945312 214.261719 290.214844 C 214.839844 289.875 215.316406 265.71875 215.316406 236.535156 C 215.316406 178.425781 215.160156 179.566406 223.773438 175.113281 C 227.222656 173.332031 238.507812 173.011719 297.980469 173.011719 C 375.316406 173.011719 376.824219 172.871094 393.1875 164.175781 C 425.804688 146.84375 438.550781 106.164062 422.007812 72.207031 C 417.523438 63.011719 402.289062 48.050781 391.800781 42.546875 C 374.800781 33.628906 377.554688 33.789062 244.164062 33.894531 C 142.554688 33.972656 121.570312 34.324219 113.359375 36.082031 M 247.261719 221.890625 C 246.839844 224.015625 246.496094 248.351562 246.503906 275.964844 C 246.511719 303.582031 246.097656 327.484375 245.59375 329.082031 C 243.390625 336.015625 241.617188 336.175781 166.6875 336.175781 C 88.746094 336.175781 87.210938 336.328125 70.371094 345.6875 C 34.671875 365.523438 22.734375 412.644531 44.78125 446.734375 C 54.984375 462.511719 70.410156 473.398438 89.484375 478.273438 C 99.90625 480.9375 105.410156 481.054688 218.9375 481.054688 C 316.167969 481.054688 339.40625 480.691406 348.070312 479.035156 C 413.167969 466.585938 447.851562 401.523438 422.210938 339.964844 C 414.929688 322.484375 403.765625 308.019531 388.414062 296.175781 C 381.257812 290.65625 352.125 273.871094 314.53125 253.613281 C 306.015625 249.023438 288.195312 239.140625 274.933594 231.644531 C 261.667969 224.152344 250.1875 218.023438 249.425781 218.023438 C 248.660156 218.023438 247.6875 219.761719 247.261719 221.890625 M 249.089844 274.675781 C 249.089844 333.652344 249.257812 332.429688 240.632812 336.886719 C 237.183594 338.667969 225.898438 338.988281 166.425781 338.988281 C 89.242188 338.988281 87.53125 339.148438 71.472656 347.703125 C 49.527344 359.394531 37.511719 378.398438 35.636719 404.394531 C 33.6875 431.453125 47.757812 456.15625 72.675781 469.421875 C 89.835938 478.558594 86.855469 478.390625 224.199219 477.878906 C 362.257812 477.359375 354.085938 477.917969 374.714844 467.589844 C 402.347656 453.753906 419.15625 433.023438 426.605469 403.585938 C 432.867188 378.835938 427.445312 348.035156 412.792969 325.144531 C 402.191406 308.582031 387.730469 296.265625 363.785156 283.402344 C 356.820312 279.660156 340.988281 270.792969 328.601562 263.699219 C 305.144531 250.257812 251.054688 220.835938 249.808594 220.835938 C 249.414062 220.835938 249.089844 245.0625 249.089844 274.675781"/><path style="stroke:none;fill-rule:evenodd;fill:#06f583;fill-opacity:1" d="M 118.210938 2.296875 C 68.859375 5.992188 25.824219 40.84375 8.660156 91.019531 C 4.019531 104.59375 2.382812 118.488281 3.230469 137.144531 C 4.820312 172.132812 19.308594 203.585938 45.859375 229.703125 C 57.621094 241.273438 63.476562 245.25 90.769531 260.21875 C 124.296875 278.601562 126.304688 279.71875 147.0625 291.507812 C 165.972656 302.246094 170.1875 304.953125 168.804688 305.464844 C 168.457031 305.59375 149.171875 306.140625 125.953125 306.671875 C 82.472656 307.675781 81.636719 307.78125 64.734375 314.464844 C 43.003906 323.058594 21.160156 345.132812 10.464844 369.300781 C 2.007812 388.410156 0.523438 419.664062 7.164062 438.855469 C 18.0625 470.378906 43.097656 496.050781 71.773438 505.121094 C 87.691406 510.15625 107.117188 510.773438 233.75 510.25 L 355.34375 509.746094 L 368.003906 505.988281 C 404.46875 495.160156 431.964844 471.847656 449.191406 437.140625 C 458.835938 417.714844 462.324219 399.539062 461.148438 374.855469 C 459.328125 336.5625 442.34375 302.671875 411.425781 275.628906 C 402.738281 268.035156 395.4375 263.554688 360.972656 244.695312 C 347.8125 237.496094 328.300781 226.648438 317.609375 220.59375 C 306.917969 214.539062 297.578125 209.582031 296.851562 209.582031 C 294.183594 209.582031 295.632812 207.050781 298.746094 206.265625 C 300.515625 205.824219 317.140625 205.4375 335.6875 205.40625 C 374.875 205.34375 382.390625 204.421875 399.671875 197.550781 C 419.476562 189.671875 440.867188 169.335938 451.46875 148.296875 C 458.886719 133.578125 460.871094 124.101562 460.871094 103.382812 C 460.867188 82.722656 458.914062 73.480469 451.351562 58.375 C 439.359375 34.40625 416.414062 14.65625 390.523438 6.007812 L 379.265625 2.246094 L 251.90625 2.035156 C 181.859375 1.917969 121.695312 2.035156 118.210938 2.296875 M 121.730469 31.847656 C 98.589844 36.570312 84.300781 42.714844 70.023438 54.074219 C 47.664062 71.871094 33.773438 100.554688 33.773438 128.933594 C 33.773438 171.074219 53.9375 204.34375 93.074219 226.785156 C 108.136719 235.425781 137.65625 251.777344 159.726562 263.710938 C 165.144531 266.640625 179.488281 274.648438 191.601562 281.507812 C 203.714844 288.367188 214.320312 293.976562 215.171875 293.976562 C 217.066406 293.976562 216.84375 300.34375 217.164062 237.714844 C 217.3125 208.703125 217.984375 183.835938 218.65625 182.453125 C 221.808594 175.976562 223.609375 175.824219 297.722656 175.824219 C 374.683594 175.824219 376.886719 175.621094 393.050781 167.039062 C 404.722656 160.839844 412.933594 153.0625 419.523438 141.976562 C 427.402344 128.722656 430.632812 117.613281 430.632812 103.761719 C 430.632812 68.484375 405.09375 38.476562 370.003906 32.519531 C 361.207031 31.023438 128.835938 30.394531 121.730469 31.847656 M 247.261719 221.890625 C 246.839844 224.015625 246.496094 248.351562 246.503906 275.964844 C 246.511719 303.582031 246.097656 327.484375 245.59375 329.082031 C 243.390625 336.015625 241.617188 336.175781 166.6875 336.175781 C 88.746094 336.175781 87.210938 336.328125 70.371094 345.6875 C 34.671875 365.523438 22.734375 412.644531 44.78125 446.734375 C 54.984375 462.511719 70.410156 473.398438 89.484375 478.273438 C 99.90625 480.9375 105.410156 481.054688 218.9375 481.054688 C 316.167969 481.054688 339.40625 480.691406 348.070312 479.035156 C 413.167969 466.585938 447.851562 401.523438 422.210938 339.964844 C 414.929688 322.484375 403.765625 308.019531 388.414062 296.175781 C 381.257812 290.65625 352.125 273.871094 314.53125 253.613281 C 306.015625 249.023438 288.195312 239.140625 274.933594 231.644531 C 261.667969 224.152344 250.1875 218.023438 249.425781 218.023438 C 248.660156 218.023438 247.6875 219.761719 247.261719 221.890625"/></g></svg>

<svg xmlns="http://www.w3.org/2000/svg" width="463" height="512"><path d="M100.621 2.719C60.258 13.019 25.68 42.703 10.47 80.113c-11.301 27.801-12.094 65.934-1.985 95.711 7.766 22.875 24.301 46.77 42.485 61.387 10.402 8.363 40.648 26.277 89.515 53.008l24.387 13.34-39.16.578c-37.813.558-39.55.707-50.441 4.312-26.926 8.903-51.29 29.113-62.461 51.809C3.785 378.594.902 392.313 1.766 412.793c.828 19.469 4.347 32.445 13.062 48.102 10.438 18.753 34.473 38.335 57.277 46.668l10.223 3.734 135.035.379c153.657.433 144.457 1.062 170.98-11.711 29.466-14.188 51.06-35.79 63.762-63.793 14.184-31.27 14.81-72.078 1.614-105.621-5.203-13.215-12.203-25.246-21.489-36.906-14.98-18.817-27.484-27.27-98.484-66.579l-32.86-18.187 38.489-.809c36.73-.77 38.996-.976 49.742-4.535 31.059-10.285 57.363-34.805 67.711-63.117 6.914-18.922 8.227-43.176 3.379-62.48-7.703-30.645-29.766-56.653-59.64-70.286C383.323-.218 387.694-.008 243.52.105 120.59.2 109.723.398 100.62 2.72m17.59-.422C68.859 5.992 25.824 40.844 8.66 91.02c-4.641 13.574-6.278 27.468-5.43 46.125 1.59 34.988 16.078 66.44 42.628 92.558 11.762 11.57 17.618 15.547 44.91 30.516 33.528 18.383 35.536 19.5 56.293 31.289 18.91 10.738 23.125 13.445 21.743 13.957-.348.129-19.633.676-42.852 1.207-43.48 1.004-44.316 1.11-61.219 7.793-21.73 8.594-43.574 30.668-54.27 54.836-8.456 19.11-9.94 50.363-3.3 69.554 10.898 31.524 35.934 57.196 64.61 66.266 15.917 5.035 35.343 5.652 161.976 5.129l121.594-.504 12.66-3.758c36.465-10.828 63.96-34.14 81.187-68.847 9.645-19.426 13.133-37.602 11.957-62.286-1.82-38.293-18.804-72.183-49.722-99.226-8.688-7.594-15.988-12.074-50.453-30.934-13.16-7.199-32.672-18.047-43.364-24.101-10.691-6.055-20.03-11.012-20.757-11.012-2.668 0-1.22-2.531 1.894-3.316 1.77-.442 18.395-.828 36.942-.86 39.187-.062 46.703-.984 63.984-7.855 19.805-7.88 41.195-28.215 51.797-49.254 7.418-14.719 9.402-24.195 9.402-44.914-.004-20.66-1.957-29.903-9.52-45.008-11.992-23.969-34.937-43.719-60.828-52.367l-11.257-3.762-127.36-.21c-70.047-.118-130.21 0-133.695.26m3.52 29.552C98.59 36.57 84.3 42.715 70.022 54.074c-22.359 17.797-36.25 46.48-36.25 74.86 0 42.14 20.164 75.41 59.301 97.851 15.063 8.64 44.582 24.992 66.653 36.926 5.418 2.93 19.761 10.937 31.875 17.797 12.113 6.86 22.718 12.469 23.57 12.469 1.894 0 1.672 6.367 1.992-56.262.149-29.012.82-53.88 1.492-55.262 3.153-6.476 4.953-6.629 79.067-6.629 76.96 0 79.164-.203 95.328-8.785 11.672-6.2 19.883-13.976 26.472-25.062 7.88-13.254 11.11-24.364 11.11-38.215 0-35.278-25.54-65.285-60.63-71.242-8.796-1.497-241.167-2.125-248.273-.672m-8.37 4.234c-20.41 4.371-40.094 15.535-53.5 30.344-9.465 10.453-15.032 20.05-20.008 34.488-3.258 9.465-3.77 13.242-3.848 28.492-.106 21.098 1.976 30.102 11.375 49.227 9.277 18.875 24.266 33.672 46.91 46.312 8.902 4.97 30.434 17.063 47.848 26.875 44.558 25.106 70.89 39.125 72.125 38.395.578-.34 1.054-24.496 1.054-53.68 0-58.11-.156-56.969 8.457-61.422 3.45-1.781 14.735-2.101 74.207-2.101 77.336 0 78.844-.14 95.207-8.836 32.618-17.332 45.364-58.012 28.82-91.969-4.484-9.195-19.718-24.156-30.206-29.66-17-8.918-14.246-8.758-147.637-8.652-101.61.078-122.594.43-130.805 2.187m133.903 185.809c-.422 2.125-.766 26.46-.758 54.074.008 27.617-.406 51.52-.91 53.117-2.203 6.934-3.977 7.094-78.906 7.094-77.942 0-79.477.152-96.317 9.512-35.7 19.835-47.637 66.957-25.59 101.046 10.203 15.778 25.63 26.664 44.703 31.54 10.422 2.663 15.926 2.78 129.454 2.78 97.23 0 120.468-.363 129.132-2.019 65.098-12.45 99.782-77.512 74.14-139.07-7.28-17.48-18.444-31.945-33.796-43.79-7.156-5.519-36.289-22.304-73.883-42.562-8.515-4.59-26.336-14.472-39.597-21.968-13.266-7.493-24.747-13.622-25.508-13.622-.766 0-1.738 1.739-2.164 3.868m1.828 52.785c0 58.976.168 57.754-8.457 62.21-3.45 1.782-14.735 2.102-74.207 2.102-77.184 0-78.895.16-94.953 8.715-21.946 11.692-33.961 30.695-35.836 56.692-1.95 27.058 12.12 51.761 37.039 65.027 17.16 9.137 14.18 8.969 151.523 8.457 138.059-.52 129.887.039 150.516-10.29 27.633-13.835 44.441-34.566 51.89-64.003 6.262-24.75.84-55.55-13.812-78.441-10.602-16.563-25.063-28.88-49.008-41.743-6.965-3.742-22.797-12.609-35.183-19.703-23.457-13.441-77.547-42.863-78.793-42.863-.395 0-.72 24.226-.72 53.84" style="stroke:none;fill-rule:evenodd;fill:#20ae6b;fill-opacity:1"/><path d="M118.21 2.297C68.86 5.992 25.825 40.844 8.66 91.02c-4.64 13.574-6.277 27.468-5.43 46.125 1.59 34.988 16.079 66.44 42.63 92.558 11.761 11.57 17.617 15.547 44.91 30.516 33.527 18.383 35.535 19.5 56.293 31.289 18.91 10.738 23.125 13.445 21.742 13.957-.348.129-19.633.676-42.852 1.207-43.48 1.004-44.316 1.11-61.219 7.793-21.73 8.594-43.574 30.668-54.27 54.836-8.456 19.11-9.94 50.363-3.3 69.554 10.898 31.524 35.934 57.196 64.61 66.266 15.917 5.035 35.343 5.652 161.976 5.129l121.594-.504 12.66-3.758c36.465-10.828 63.96-34.14 81.187-68.847 9.645-19.426 13.133-37.602 11.957-62.286-1.82-38.293-18.804-72.183-49.722-99.226-8.688-7.594-15.988-12.074-50.453-30.934-13.16-7.199-32.672-18.047-43.364-24.101-10.691-6.055-20.03-11.012-20.757-11.012-2.668 0-1.22-2.531 1.894-3.316 1.77-.442 18.395-.828 36.942-.86 39.187-.062 46.703-.984 63.984-7.855 19.805-7.88 41.195-28.215 51.797-49.254 7.418-14.719 9.402-24.195 9.402-44.914-.004-20.66-1.957-29.903-9.52-45.008-11.992-23.969-34.937-43.719-60.828-52.367l-11.257-3.762-127.36-.21c-70.047-.118-130.21 0-133.695.26m3.52 29.552C98.59 36.57 84.3 42.715 70.022 54.074c-22.359 17.797-36.25 46.48-36.25 74.86 0 42.14 20.164 75.41 59.301 97.851 15.063 8.64 44.582 24.992 66.653 36.926 5.418 2.93 19.761 10.937 31.875 17.797 12.113 6.86 22.718 12.469 23.57 12.469 1.894 0 1.672 6.367 1.992-56.262.149-29.012.82-53.88 1.492-55.262 3.153-6.476 4.953-6.629 79.067-6.629 76.96 0 79.164-.203 95.328-8.785 11.672-6.2 19.883-13.976 26.472-25.062 7.88-13.254 11.11-24.364 11.11-38.215 0-35.278-25.54-65.285-60.63-71.242-8.796-1.497-241.167-2.125-248.273-.672M247.262 221.89c-.422 2.125-.766 26.46-.758 54.074.008 27.617-.406 51.52-.91 53.117-2.203 6.934-3.977 7.094-78.906 7.094-77.942 0-79.477.152-96.317 9.512-35.7 19.835-47.637 66.957-25.59 101.046 10.203 15.778 25.63 26.664 44.703 31.54 10.422 2.663 15.926 2.78 129.454 2.78 97.23 0 120.468-.363 129.132-2.019 65.098-12.45 99.782-77.512 74.14-139.07-7.28-17.48-18.444-31.945-33.796-43.79-7.156-5.519-36.289-22.304-73.883-42.562-8.515-4.59-26.336-14.472-39.597-21.968-13.266-7.493-24.747-13.622-25.508-13.622-.766 0-1.738 1.739-2.164 3.868" style="stroke:none;fill-rule:evenodd;fill:#06f583;fill-opacity:1"/></svg>
